packages/core/src/svgs/juld.svg

<svg width="24" height="24" viewBox="0 0 24 24" fill="none" xmlns="http://www.w3.org/2000/svg">
<g clip-path="url(#clip0_31_12171)">
<path d="M0 0H24V24H0V0Z" fill="#F0F3FA"/>
<path fill-rule="evenodd" clip-rule="evenodd" d="M14.6057 8.03579C14.5543 7.42722 14.4171 6.2015 14.3057 6.18865C14.1943 6.1715 13.5471 7.45293 13.2343 8.09579L13.2043 8.16436C12.9943 8.19008 12.5571 8.32722 12.4543 8.70008C12.3557 9.06865 12.7157 9.27008 12.9085 9.32579C13.3328 9.56579 14.0143 10.3115 13.35 11.3615C13.3928 11.1344 13.2814 10.6629 12.4757 10.5772C12.4885 10.7615 12.4671 11.1986 12.2785 11.4686L12.18 11.6015C11.8928 11.9958 11.3657 12.7201 11.4085 13.2944C11.4685 13.9372 12.0985 14.2501 12.54 13.7358C12.5485 13.7829 12.54 13.9072 12.4457 14.0101L12.3857 14.0829C12.2571 14.2672 11.9957 14.6229 11.1471 14.5801C11.1257 14.6229 11.0871 14.7344 11.0914 14.8244C11.0957 14.9315 11.1814 15.2701 11.3828 15.5701C11.5843 15.8658 11.7343 16.3501 11.7171 16.5558C12.3728 16.5558 13.86 16.3972 14.5928 15.7715C14.2874 15.4101 14.082 14.9751 13.9971 14.5096C13.9121 14.0442 13.9505 13.5646 14.1085 13.1186C13.7314 13.0329 12.9685 12.6729 12.9471 11.9272C12.96 11.8929 12.9985 11.8329 13.05 11.8244C13.0971 11.8158 13.1228 11.8886 13.1314 11.9272C13.1357 12.1972 13.3543 12.7844 14.1814 12.9772C15.0128 13.1701 15.5314 13.1915 15.6814 13.1829C16.1357 13.2429 17.1043 13.4701 17.3443 13.9372C17.5843 14.4001 18.0385 14.2458 18.2357 14.1129L17.7943 13.7272C17.7643 13.6844 17.7428 13.6072 17.8628 13.6415C17.9828 13.6758 18.3428 13.8515 18.5057 13.9372C18.9043 13.6286 19.5857 12.8486 19.14 12.1886L17.01 10.4101C16.7692 10.3858 16.5452 10.276 16.3785 10.1006C16.2118 9.92529 16.1135 9.696 16.1014 9.45436C15.8785 9.57008 15.3557 9.52722 15.0214 8.42579C14.9743 8.37436 14.7857 8.2715 14.4343 8.25436C14.1532 8.24102 13.8717 8.26845 13.5985 8.33579C13.7357 7.88579 14.0528 6.98579 14.19 6.97293C14.3271 6.96436 14.3614 7.05865 14.3828 7.14436L14.4 7.1915C14.43 7.2515 14.3485 7.21722 14.3057 7.1915C14.2971 7.15293 14.2628 7.08008 14.2328 7.08865C14.0878 7.40948 13.9618 7.73863 13.8557 8.07436C14.1028 8.02802 14.3551 8.01505 14.6057 8.03579ZM18.4285 12.3001C18.3557 12.3644 18.2228 12.5529 18.2785 12.7715C18.3471 13.0544 18.5743 13.0844 18.7843 12.8872C18.6043 12.9001 18.2828 12.8015 18.4285 12.3001Z" fill="url(#paint0_linear_31_12171)"/>
<path d="M4.62856 17.3873C4.28571 17.4045 3.97713 17.1045 3.86571 16.9502C3.78856 17.4602 4.19999 17.7988 4.41428 17.9016C4.61999 17.9316 5.09142 17.9788 5.34856 17.9531C5.66999 17.9102 5.74285 17.6659 5.73428 17.5673C5.73428 17.4688 5.65713 17.3273 5.53285 17.3145C5.40856 17.3016 5.06999 17.3702 4.63285 17.3873H4.62856Z" fill="url(#paint1_linear_31_12171)"/>
<path d="M5.7429 16.9884C5.85433 16.7313 6.21005 16.6413 6.36862 16.6284C5.87576 17.477 6.45433 17.9013 6.81005 18.0041C6.6429 18.2184 6.45862 18.4113 6.10719 18.5313C5.75576 18.647 5.09576 18.3898 4.88576 18.3598C4.71433 18.3384 4.49576 18.4884 4.40576 18.5698C4.5129 18.1798 4.77005 18.0813 4.88576 18.0813C4.98005 18.107 5.22862 18.1413 5.45576 18.0813C5.73433 18.0084 5.80719 17.7384 5.84148 17.6356C5.83632 17.4165 5.8032 17.1991 5.7429 16.9884Z" fill="url(#paint2_linear_31_12171)"/>
<path d="M6.52716 16.6631C6.58716 16.7145 7.08859 16.8217 7.32859 16.8688C6.95573 17.0617 6.76287 17.5888 6.71573 17.8331C6.05573 17.5588 6.31287 16.9374 6.52716 16.6631Z" fill="url(#paint3_linear_31_12171)"/>
<path d="M13.1058 8.01409L13.5943 6.97694C10.1658 6.01266 9.7029 8.71694 9.89576 10.1869C10.0672 10.7141 10.4315 11.8455 10.4872 12.1455C10.5472 12.4455 10.3243 13.1098 10.2086 13.4012C11.4343 12.1027 11.2543 10.9284 11.2672 10.7227C11.2843 10.5169 11.2115 9.82694 11.1772 9.70266C11.1563 9.54334 11.1563 9.38197 11.1772 9.22266C11.2458 8.60552 11.7686 8.04837 11.9058 8.01837C12.0215 7.99266 11.9958 8.0698 11.97 8.11266C11.7472 8.31409 11.3229 8.87552 11.4 9.50123C11.4943 10.2898 12.8358 10.5298 13.0629 10.6069C13.2472 10.6712 13.3972 10.8812 13.4486 10.9755C13.5516 10.6747 13.5398 10.3465 13.4156 10.0539C13.2915 9.76125 13.0636 9.52476 12.7758 9.3898C12.6386 9.38123 12.3558 9.24409 12.3086 8.76837C12.2658 8.29694 12.8229 8.0698 13.1058 8.01837V8.01409Z" fill="url(#paint4_linear_31_12171)"/>
<path d="M14.7857 8.09566L14.7 7.31566C15.27 7.25138 15.7714 7.51281 15.9471 7.64995L15.1628 8.24995C15.0557 8.16424 14.8671 8.10852 14.79 8.09566H14.7857Z" fill="url(#paint5_linear_31_12171)"/>
<path d="M17.6829 7.11405C17.6376 6.92095 17.6376 6.72 17.6829 6.5269L18.7072 5.68262C18.7972 5.68262 18.7929 5.73833 18.7757 5.76833L17.6829 7.11405Z" fill="#924BC5"/>
<path d="M16.8986 7.10153L17.5543 6.6001C17.5085 6.82637 17.5085 7.05954 17.5543 7.28581L16.9629 8.00581C16.8343 7.74867 16.8686 7.29438 16.8986 7.10581V7.10153Z" fill="url(#paint6_linear_31_12171)"/>
<path d="M16.23 8.9141C16.0671 8.70839 16.0885 8.05268 16.1185 7.74839L16.7443 7.24268C16.7113 7.55151 16.7555 7.86369 16.8728 8.15125L16.23 8.9141Z" fill="#CD4BDF"/>
<path d="M14.4128 9.75C14.7986 9.78429 15.3643 10.11 15.5957 10.2686C15.9428 10.5386 15.9214 11.1129 15.5228 10.9586C15.12 10.8043 14.4428 9.75429 14.4128 9.75Z" fill="url(#paint7_linear_31_12171)"/>
<path d="M15.9857 10.2216C15.7928 10.1573 15.3857 10.3073 15.2142 10.3931C15.3428 10.6073 15.5699 10.7188 15.6428 10.7573C15.7114 10.7873 15.9857 10.7445 16.1185 10.7188L15.9857 10.2216Z" fill="#4848BA"/>
<path d="M15.4371 10.4014C15.4371 10.4657 15.5143 10.5899 15.7885 10.5728C15.4585 10.6928 15.4157 10.5085 15.4371 10.4014Z" fill="#ECE2FF"/>
<path d="M13.0286 12.3002C13.2343 12.793 13.8 13.0502 14.1086 13.1188C13.9767 13.5 13.9298 13.9055 13.9712 14.3068C14.0127 14.7081 14.1415 15.0954 14.3486 15.4416C12.9771 14.863 12.8786 13.213 13.0286 12.2959V12.3002Z" fill="url(#paint8_linear_31_12171)"/>
<path d="M15.8829 9.3859C15.3429 9.0859 15.1886 8.64447 15.1801 8.46447L15.9643 7.83447C15.9172 8.0959 15.8915 8.70019 16.1572 9.0259L15.8829 9.38161V9.3859Z" fill="#CC51E8"/>
<path d="M16.2214 9.23141L16.5986 8.76855C16.68 8.95284 16.6672 9.62998 16.6672 9.82713C16.6672 9.98141 16.7743 10.1571 16.8257 10.2257C16.6244 10.1575 16.4537 10.0203 16.3439 9.83827C16.2341 9.65629 16.1922 9.44131 16.2257 9.23141H16.2214Z" fill="url(#paint9_linear_31_12171)"/>
<path d="M10.1357 11.4001C9.5443 9.99871 9.62144 9.00014 9.73715 8.67871C9.27109 8.86972 8.87125 9.1932 8.58713 9.6091C8.303 10.025 8.14705 10.5151 8.13858 11.0187C8.12573 11.2973 8.15573 11.9959 8.37858 12.5616C8.60144 13.1273 8.43858 13.7187 8.32715 13.9459C8.11715 14.2244 7.56858 14.5887 7.04144 13.8301C6.95751 13.6292 6.9143 13.4136 6.9143 13.1959C6.9143 12.9781 6.95751 12.7625 7.04144 12.5616C6.69858 12.8616 6.0343 13.6201 6.14144 14.233C6.27858 15.0044 6.41572 15.7244 7.73573 15.7973C8.79001 15.8573 9.23573 14.9616 9.32144 14.5073V13.2001C9.25287 12.6859 9.31287 11.6059 10.1357 11.4001Z" fill="url(#paint10_linear_31_12171)"/>
<path d="M9.51429 12.416C9.53192 12.22 9.60852 12.0341 9.734 11.8826C9.85948 11.7311 10.0279 11.6212 10.2171 11.5674C10.5686 12.9045 9.91286 13.5945 9.87429 13.7231C9.84 13.8302 9.90857 13.856 9.94286 13.856L10.2386 13.5945C10.2814 14.186 10.7743 14.4774 11.0186 14.5502C10.8214 15.0217 11.28 15.6645 11.52 16.2002C11.7086 16.6288 11.4386 17.0102 11.28 17.1431C11.3033 16.9462 11.2806 16.7465 11.2137 16.5599C11.1468 16.3732 11.0374 16.2046 10.8943 16.0674C10.8729 16.0245 10.7143 15.8445 10.2386 15.4974C9.86836 15.2098 9.61302 14.7994 9.51857 14.3402C9.50143 13.9202 9.47571 12.9517 9.51857 12.4117L9.51429 12.416Z" fill="url(#paint11_linear_31_12171)"/>
<path d="M10.3629 13.4572C11.5415 12.3343 11.5201 10.5558 11.3572 9.81006C11.4652 9.99533 11.6098 10.1566 11.7822 10.2841C11.9547 10.4116 12.1513 10.5026 12.3601 10.5515C12.3901 10.8258 12.1758 11.4515 11.9572 11.6915C11.7772 11.8886 11.5115 12.4029 11.4001 12.6343C10.9758 13.7829 11.6915 14.1386 12.1029 14.1772C10.9201 14.8329 10.4486 13.9758 10.3629 13.4615V13.4572Z" fill="url(#paint12_linear_31_12171)"/>
<path d="M9.0771 15.3259C9.23567 15.1502 9.3771 14.7559 9.43282 14.5845C9.51853 14.9959 9.85282 15.3516 10.0071 15.4759C9.99853 15.4759 9.96424 15.5616 9.93853 15.8702C9.89996 16.2559 10.2257 16.4702 10.1957 17.0273C10.1657 17.5759 9.89996 17.9402 9.50139 18.043C9.17996 18.1288 8.7771 18.0088 8.61853 17.9402C9.72853 17.9445 9.29567 16.5945 9.18424 16.2002C9.11132 15.9145 9.07531 15.6207 9.0771 15.3259Z" fill="url(#paint13_linear_31_12171)"/>
<path d="M10.9758 16.3883C10.9415 16.2383 10.3886 15.7883 10.1186 15.5869C9.93863 16.0626 10.3201 16.5298 10.3243 17.0012C10.3243 17.3783 10.0886 17.7898 9.96863 17.9441C10.8258 17.5369 11.0186 16.5726 10.9758 16.3883Z" fill="#4C6EB5"/>
<path d="M8.94862 15.6985V15.4628C8.60239 15.7702 8.15252 15.9349 7.68967 15.9238C7.22682 15.9127 6.78539 15.7265 6.45434 15.4028C5.52862 15.6171 5.53291 16.4828 5.64862 16.8857C6.33434 16.1143 6.64291 16.7485 7.61148 16.7571C8.38719 16.7614 8.82862 16.0543 8.94862 15.6985Z" fill="url(#paint14_linear_31_12171)"/>
<path d="M9.19287 16.6285L8.97429 15.8999C8.86216 16.1947 8.66237 16.4481 8.40184 16.6258C8.14131 16.8036 7.83254 16.8973 7.51715 16.8942C6.99429 17.0656 6.86572 17.657 6.86572 17.9313C6.99583 17.7919 7.15399 17.6816 7.3298 17.6078C7.50561 17.5339 7.69508 17.4981 7.88572 17.5028C8.07001 17.5156 8.53715 17.5028 8.89715 17.3313C9.25715 17.1728 9.24429 16.7956 9.19715 16.6285H9.19287Z" fill="#497DB7"/>
<path d="M8.84146 17.803C9.07717 17.773 9.19717 17.3873 9.22717 17.1987C9.04289 17.4773 8.65289 17.593 8.47717 17.6144H7.74003C7.47431 17.6144 7.08003 17.8416 6.94717 18.0173C6.84003 18.1544 6.5786 18.4202 6.46288 18.5316C6.44146 18.6173 6.52289 18.7844 6.56146 18.8573C6.63211 18.6709 6.75416 18.5083 6.91346 18.3885C7.07275 18.2686 7.26277 18.1964 7.46146 18.1802H8.84146C8.59821 18.1523 8.37535 18.0308 8.22003 17.8416C8.32717 17.8416 8.60146 17.8373 8.84146 17.803Z" fill="url(#paint15_linear_31_12171)"/>
<path d="M5.49004 16.4487C4.93718 16.5045 4.65861 16.0459 4.59004 15.8145C4.44004 16.9802 5.17718 17.203 5.56289 17.1645C5.48575 17.0659 5.48146 16.6502 5.49004 16.4487Z" fill="url(#paint16_linear_31_12171)"/>
<path d="M8.14289 5.14307H6.85718C6.85718 5.48406 6.99264 5.81109 7.23375 6.0522C7.47487 6.29332 7.8019 6.42878 8.14289 6.42878V10.1145C8.50289 9.18021 9.39861 8.7045 9.85718 8.52878V6.42878H11.7772C12.4886 6.42878 13.17 6.56164 13.7915 6.80592C13.94 6.48449 14.1513 6.19598 14.4129 5.95735C14.6615 6.04735 14.76 6.85735 14.7815 7.25592C15.2503 7.20959 15.7205 7.32942 16.11 7.59449L16.95 6.96021C15.781 5.79611 14.1984 5.1427 12.5486 5.14307H8.14289ZM17.58 7.68021L16.7872 8.67449C16.83 8.74735 16.86 9.44592 16.8558 9.70307C16.8587 9.87345 16.9125 10.0391 17.01 10.1788L18.8572 11.7602V11.5459C18.8572 10.0974 18.3815 8.76021 17.58 7.68021ZM18.4072 14.4002L18.3172 14.4216C17.4686 14.5974 17.2586 14.1988 17.16 14.0016L17.1172 13.9288C17.0572 13.8431 16.8343 13.7359 16.6757 13.6759C16.2313 14.5947 15.5348 15.3682 14.6675 15.9062C13.8002 16.4442 12.7978 16.7245 11.7772 16.7145H11.6529C11.4815 17.2416 11.2886 17.3616 11.1729 17.3531C11.2329 17.0531 11.2243 16.9374 11.1729 16.8474C10.83 17.9616 9.50146 18.3774 9.17146 18.4116L9.13718 18.4288H12.5486C15.2057 18.4288 17.4772 16.7616 18.4072 14.4002ZM8.14289 13.9502C8.40861 13.6074 8.48146 13.1959 8.42575 12.9859L8.14289 12.0688V13.9545V13.9502Z" fill="url(#paint17_linear_31_12171)"/>
</g>
<defs>
<linearGradient id="paint0_linear_31_12171" x1="20.31" y1="12.5915" x2="11.4214" y2="14.3529" gradientUnits="userSpaceOnUse">
<stop offset="0.32" stop-color="#C051E1"/>
<stop offset="1" stop-color="#4B47C0"/>
</linearGradient>
<linearGradient id="paint1_linear_31_12171" x1="6.02142" y1="17.7002" x2="3.85713" y2="17.6316" gradientUnits="userSpaceOnUse">
<stop stop-color="#497DB7"/>
<stop offset="1" stop-color="#67D1A5"/>
</linearGradient>
<linearGradient id="paint2_linear_31_12171" x1="5.61005" y1="16.6284" x2="5.61005" y2="18.5698" gradientUnits="userSpaceOnUse">
<stop offset="0.14" stop-color="#4E97AE"/>
<stop offset="1" stop-color="#67D1A5"/>
</linearGradient>
<linearGradient id="paint3_linear_31_12171" x1="7.54287" y1="16.9888" x2="6.29145" y2="17.2459" gradientUnits="userSpaceOnUse">
<stop stop-color="#497DB7"/>
<stop offset="1" stop-color="#67D1A5"/>
</linearGradient>
<linearGradient id="paint4_linear_31_12171" x1="13.1358" y1="9.04694" x2="9.85719" y2="9.26552" gradientUnits="userSpaceOnUse">
<stop stop-color="#4375B1"/>
<stop offset="1" stop-color="#6AE3A3"/>
</linearGradient>
<linearGradient id="paint5_linear_31_12171" x1="15.78" y1="7.30709" x2="14.7" y2="7.30709" gradientUnits="userSpaceOnUse">
<stop stop-color="#589CB6"/>
<stop offset="1" stop-color="#6BC7B2"/>
</linearGradient>
<linearGradient id="paint6_linear_31_12171" x1="17.7472" y1="7.01153" x2="16.5815" y2="8.00581" gradientUnits="userSpaceOnUse">
<stop stop-color="#924BC5"/>
<stop offset="1" stop-color="#CD4BDF"/>
</linearGradient>
<linearGradient id="paint7_linear_31_12171" x1="14.4128" y1="9.75" x2="15.8443" y2="11.3571" gradientUnits="userSpaceOnUse">
<stop stop-color="#6051BE"/>
<stop offset="1" stop-color="#A754D8"/>
</linearGradient>
<linearGradient id="paint8_linear_31_12171" x1="14.5543" y1="14.0959" x2="13.3843" y2="14.3316" gradientUnits="userSpaceOnUse">
<stop stop-color="#AF53DB"/>
<stop offset="1" stop-color="#4E46BD"/>
</linearGradient>
<linearGradient id="paint9_linear_31_12171" x1="16.8257" y1="9.49713" x2="16.2129" y2="9.49713" gradientUnits="userSpaceOnUse">
<stop stop-color="#4C80B8"/>
<stop offset="1" stop-color="#6DCBB2"/>
</linearGradient>
<linearGradient id="paint10_linear_31_12171" x1="10.1357" y1="14.4473" x2="6.89144" y2="14.5801" gradientUnits="userSpaceOnUse">
<stop stop-color="#4375B1"/>
<stop offset="1" stop-color="#67D1A5"/>
</linearGradient>
<linearGradient id="paint11_linear_31_12171" x1="9.49714" y1="11.5674" x2="10.5429" y2="17.1431" gradientUnits="userSpaceOnUse">
<stop offset="0.14" stop-color="#67D1A5"/>
<stop offset="1" stop-color="#446CB8"/>
</linearGradient>
<linearGradient id="paint12_linear_31_12171" x1="12.3643" y1="12.6901" x2="9.9472" y2="13.3201" gradientUnits="userSpaceOnUse">
<stop stop-color="#4775B3"/>
<stop offset="0.88" stop-color="#6DDFA4"/>
</linearGradient>
<linearGradient id="paint13_linear_31_12171" x1="8.8671" y1="15.523" x2="10.2" y2="18.073" gradientUnits="userSpaceOnUse">
<stop stop-color="#67DAA4"/>
<stop offset="1" stop-color="#4B8AAE"/>
</linearGradient>
<linearGradient id="paint14_linear_31_12171" x1="5.87577" y1="16.1443" x2="8.75148" y2="16.3671" gradientUnits="userSpaceOnUse">
<stop offset="0.15" stop-color="#60D4AB"/>
<stop offset="1" stop-color="#4883AF"/>
</linearGradient>
<linearGradient id="paint15_linear_31_12171" x1="9.22289" y1="17.3873" x2="7.27717" y2="18.4544" gradientUnits="userSpaceOnUse">
<stop stop-color="#66BAAB"/>
<stop offset="1" stop-color="#68DDA4"/>
</linearGradient>
<linearGradient id="paint16_linear_31_12171" x1="6.42004" y1="16.7316" x2="4.56861" y2="16.9116" gradientUnits="userSpaceOnUse">
<stop stop-color="#4B8DAE"/>
<stop offset="1" stop-color="#66D0A5"/>
</linearGradient>
<linearGradient id="paint17_linear_31_12171" x1="19.1443" y1="13.5259" x2="8.06146" y2="13.5259" gradientUnits="userSpaceOnUse">
<stop stop-color="#4D45C2"/>
<stop offset="1" stop-color="#4B46C2"/>
</linearGradient>
<clipPath id="clip0_31_12171">
<rect width="24" height="24" fill="white"/>
</clipPath>
</defs>
</svg>

<svg xmlns="http://www.w3.org/2000/svg" width="24" height="24" fill="none" viewBox="0 0 24 24"><g clip-path="url(#a)"><path fill="#F0F3FA" d="M0 0h24v24H0z"/><path fill="url(#b)" fill-rule="evenodd" d="M14.606 8.036c-.052-.609-.189-1.834-.3-1.847-.112-.018-.759 1.264-1.072 1.907l-.03.068c-.21.026-.647.163-.75.536-.098.369.262.57.454.626.425.24 1.106.986.442 2.035.043-.227-.069-.698-.874-.784.012.184-.009.622-.198.892l-.098.133c-.287.394-.814 1.118-.771 1.692.06.643.69.956 1.131.442a.35.35 0 0 1-.094.274l-.06.073c-.129.184-.39.54-1.239.497a.6.6 0 0 0-.056.244c.005.107.09.446.292.746.201.296.351.78.334.986.656 0 2.143-.159 2.876-.785a2.71 2.71 0 0 1-.485-2.652c-.377-.086-1.14-.446-1.16-1.192.012-.034.05-.094.102-.103.047-.008.073.065.081.103.005.27.223.857 1.05 1.05.832.193 1.35.214 1.5.206.455.06 1.423.287 1.663.754.24.463.694.309.892.176l-.442-.386c-.03-.043-.051-.12.069-.085s.48.21.643.295c.398-.308 1.08-1.088.634-1.748l-2.13-1.779a1.01 1.01 0 0 1-.909-.956c-.222.116-.745.073-1.08-1.028-.047-.052-.235-.155-.587-.172a3 3 0 0 0-.835.082c.137-.45.454-1.35.591-1.363.137-.009.171.086.193.171l.017.047c.03.06-.052.026-.094 0-.009-.038-.043-.11-.073-.102a9 9 0 0 0-.377.985c.247-.046.5-.059.75-.038m3.823 4.264a.5.5 0 0 0-.15.471c.068.283.295.313.505.116-.18.013-.501-.085-.355-.587" clip-rule="evenodd"/><path fill="url(#c)" d="M4.629 17.387c-.343.017-.652-.282-.763-.437-.077.51.334.849.548.952.206.03.677.077.935.051.321-.043.394-.287.385-.386 0-.098-.077-.24-.201-.253-.124-.012-.463.056-.9.073z"/><path fill="url(#d)" d="M5.743 16.988c.111-.257.467-.347.626-.36-.493.849.085 1.273.441 1.376-.167.214-.351.407-.703.527-.351.116-1.011-.141-1.221-.171-.172-.022-.39.128-.48.21.107-.39.364-.489.48-.489.094.026.343.06.57 0 .278-.073.351-.343.385-.445a2.6 2.6 0 0 0-.098-.648"/><path fill="url(#e)" d="M6.527 16.663c.06.052.562.159.802.206-.373.193-.566.72-.613.964-.66-.274-.403-.896-.189-1.17"/><path fill="url(#f)" d="m13.106 8.014.488-1.037c-3.428-.964-3.891 1.74-3.698 3.21.171.527.535 1.659.591 1.959.06.3-.163.964-.278 1.255 1.225-1.298 1.045-2.473 1.058-2.678.017-.206-.056-.896-.09-1.02q-.03-.24 0-.48c.069-.617.592-1.175.729-1.205.115-.025.09.052.064.095-.223.201-.647.763-.57 1.388.094.789 1.436 1.029 1.663 1.106.184.064.334.274.386.369a1.29 1.29 0 0 0-.673-1.586c-.137-.009-.42-.146-.467-.622-.043-.471.514-.698.797-.75z"/><path fill="url(#g)" d="m14.786 8.096-.086-.78a1.87 1.87 0 0 1 1.247.334l-.784.6a1 1 0 0 0-.373-.154z"/><path fill="#924BC5" d="M17.683 7.114a1.3 1.3 0 0 1 0-.587l1.024-.844c.09 0 .086.055.069.085z"/><path fill="url(#h)" d="m16.899 7.102.655-.502c-.045.226-.045.46 0 .686l-.591.72c-.129-.257-.094-.712-.064-.9z"/><path fill="#CD4BDF" d="M16.23 8.914c-.163-.206-.142-.861-.111-1.166l.625-.505c-.033.309.012.62.129.908z"/><path fill="url(#i)" d="M14.413 9.75c.386.034.951.36 1.183.519.347.27.325.844-.073.69-.403-.155-1.08-1.205-1.11-1.209"/><path fill="#4848BA" d="M15.986 10.222c-.193-.065-.6.085-.772.171.129.214.356.326.429.364.068.03.343-.012.476-.038z"/><path fill="#ECE2FF" d="M15.437 10.401c0 .065.077.189.352.172-.33.12-.373-.065-.352-.172"/><path fill="url(#j)" d="M13.029 12.3c.205.493.771.75 1.08.819a2.77 2.77 0 0 0 .24 2.323c-1.372-.579-1.47-2.229-1.32-3.146z"/><path fill="#CC51E8" d="M15.883 9.386c-.54-.3-.694-.742-.703-.922l.784-.63c-.047.262-.072.866.193 1.192l-.274.356z"/><path fill="url(#k)" d="m16.221 9.231.378-.462c.081.184.068.861.068 1.058 0 .154.107.33.159.399a.9.9 0 0 1-.6-.995z"/><path fill="url(#l)" d="M10.136 11.4C9.544 10 9.62 9 9.737 8.68a2.58 2.58 0 0 0-1.598 2.34c-.013.278.017.977.24 1.543.222.565.06 1.157-.052 1.384-.21.278-.758.643-1.286-.116a1.65 1.65 0 0 1 0-1.268c-.342.3-1.007 1.058-.9 1.671.138.771.275 1.491 1.595 1.564 1.054.06 1.5-.835 1.585-1.29V13.2c-.068-.514-.008-1.594.815-1.8"/><path fill="url(#m)" d="M9.514 12.416a.97.97 0 0 1 .703-.849c.352 1.338-.304 2.027-.343 2.156-.034.107.035.133.069.133l.296-.261c.042.591.535.882.78.955-.198.472.261 1.114.501 1.65.189.429-.081.81-.24.943a1.28 1.28 0 0 0-.386-1.076c-.021-.043-.18-.223-.655-.57a1.97 1.97 0 0 1-.72-1.157c-.018-.42-.043-1.388 0-1.928z"/><path fill="url(#n)" d="M10.363 13.457c1.178-1.123 1.157-2.901.994-3.647a1.58 1.58 0 0 0 1.003.742c.03.274-.184.9-.403 1.14-.18.197-.446.71-.557.942-.424 1.149.291 1.505.703 1.543-1.183.656-1.654-.201-1.74-.716z"/><path fill="url(#o)" d="M9.077 15.326c.159-.176.3-.57.356-.742.086.412.42.768.574.892-.008 0-.043.086-.068.394-.039.386.287.6.257 1.157-.03.549-.296.913-.695 1.016-.321.086-.724-.034-.882-.103 1.11.005.677-1.346.565-1.74a3.5 3.5 0 0 1-.107-.874"/><path fill="#4C6EB5" d="M10.976 16.388c-.035-.15-.587-.6-.857-.801-.18.476.201.943.205 1.414 0 .377-.235.789-.355.943.857-.407 1.05-1.371 1.007-1.556"/><path fill="url(#p)" d="M8.949 15.699v-.236a1.83 1.83 0 0 1-2.495-.06c-.925.214-.921 1.08-.805 1.483.685-.772.994-.137 1.962-.129.776.004 1.218-.703 1.338-1.059"/><path fill="#497DB7" d="m9.193 16.629-.219-.73a1.54 1.54 0 0 1-1.457.995c-.523.172-.651.763-.651 1.037a1.35 1.35 0 0 1 1.02-.428c.184.013.651 0 1.011-.172.36-.158.347-.535.3-.703z"/><path fill="url(#q)" d="M8.841 17.803c.236-.03.356-.416.386-.604-.184.278-.574.394-.75.415H7.74c-.266 0-.66.228-.793.403a7 7 0 0 1-.484.515c-.022.085.06.252.098.325a1.05 1.05 0 0 1 .9-.677h1.38a.94.94 0 0 1-.621-.338c.107 0 .381-.005.621-.039"/><path fill="url(#r)" d="M5.49 16.449c-.553.055-.831-.403-.9-.635-.15 1.166.587 1.389.973 1.35-.077-.098-.082-.514-.073-.715"/><path fill="url(#s)" d="M8.143 5.143H6.857A1.286 1.286 0 0 0 8.143 6.43v3.685c.36-.934 1.256-1.41 1.714-1.585v-2.1h1.92c.712 0 1.393.133 2.015.377.148-.322.36-.61.62-.849.25.09.348.9.37 1.299a2 2 0 0 1 1.328.338l.84-.634a6.24 6.24 0 0 0-4.401-1.817zM17.58 7.68l-.793.994c.043.073.073.772.069 1.03.003.17.056.335.154.475l1.847 1.581v-.214A6.47 6.47 0 0 0 17.58 7.68m.827 6.72-.09.022c-.848.175-1.058-.223-1.157-.42l-.043-.073c-.06-.086-.283-.193-.441-.253a5.38 5.38 0 0 1-4.899 3.039h-.124c-.171.527-.364.647-.48.638.06-.3.051-.416 0-.506-.343 1.115-1.672 1.53-2.002 1.565l-.034.017h3.412c2.657 0 4.928-1.667 5.858-4.029m-10.264-.45c.266-.343.338-.754.283-.964l-.283-.917v1.885z"/></g><defs><linearGradient id="b" x1="20.31" x2="11.421" y1="12.591" y2="14.353" gradientUnits="userSpaceOnUse"><stop offset=".32" stop-color="#C051E1"/><stop offset="1" stop-color="#4B47C0"/></linearGradient><linearGradient id="c" x1="6.021" x2="3.857" y1="17.7" y2="17.632" gradientUnits="userSpaceOnUse"><stop stop-color="#497DB7"/><stop offset="1" stop-color="#67D1A5"/></linearGradient><linearGradient id="d" x1="5.61" x2="5.61" y1="16.628" y2="18.57" gradientUnits="userSpaceOnUse"><stop offset=".14" stop-color="#4E97AE"/><stop offset="1" stop-color="#67D1A5"/></linearGradient><linearGradient id="e" x1="7.543" x2="6.291" y1="16.989" y2="17.246" gradientUnits="userSpaceOnUse"><stop stop-color="#497DB7"/><stop offset="1" stop-color="#67D1A5"/></linearGradient><linearGradient id="f" x1="13.136" x2="9.857" y1="9.047" y2="9.266" gradientUnits="userSpaceOnUse"><stop stop-color="#4375B1"/><stop offset="1" stop-color="#6AE3A3"/></linearGradient><linearGradient id="g" x1="15.78" x2="14.7" y1="7.307" y2="7.307" gradientUnits="userSpaceOnUse"><stop stop-color="#589CB6"/><stop offset="1" stop-color="#6BC7B2"/></linearGradient><linearGradient id="h" x1="17.747" x2="16.581" y1="7.012" y2="8.006" gradientUnits="userSpaceOnUse"><stop stop-color="#924BC5"/><stop offset="1" stop-color="#CD4BDF"/></linearGradient><linearGradient id="i" x1="14.413" x2="15.844" y1="9.75" y2="11.357" gradientUnits="userSpaceOnUse"><stop stop-color="#6051BE"/><stop offset="1" stop-color="#A754D8"/></linearGradient><linearGradient id="j" x1="14.554" x2="13.384" y1="14.096" y2="14.332" gradientUnits="userSpaceOnUse"><stop stop-color="#AF53DB"/><stop offset="1" stop-color="#4E46BD"/></linearGradient><linearGradient id="k" x1="16.826" x2="16.213" y1="9.497" y2="9.497" gradientUnits="userSpaceOnUse"><stop stop-color="#4C80B8"/><stop offset="1" stop-color="#6DCBB2"/></linearGradient><linearGradient id="l" x1="10.136" x2="6.891" y1="14.447" y2="14.58" gradientUnits="userSpaceOnUse"><stop stop-color="#4375B1"/><stop offset="1" stop-color="#67D1A5"/></linearGradient><linearGradient id="m" x1="9.497" x2="10.543" y1="11.567" y2="17.143" gradientUnits="userSpaceOnUse"><stop offset=".14" stop-color="#67D1A5"/><stop offset="1" stop-color="#446CB8"/></linearGradient><linearGradient id="n" x1="12.364" x2="9.947" y1="12.69" y2="13.32" gradientUnits="userSpaceOnUse"><stop stop-color="#4775B3"/><stop offset=".88" stop-color="#6DDFA4"/></linearGradient><linearGradient id="o" x1="8.867" x2="10.2" y1="15.523" y2="18.073" gradientUnits="userSpaceOnUse"><stop stop-color="#67DAA4"/><stop offset="1" stop-color="#4B8AAE"/></linearGradient><linearGradient id="p" x1="5.876" x2="8.751" y1="16.144" y2="16.367" gradientUnits="userSpaceOnUse"><stop offset=".15" stop-color="#60D4AB"/><stop offset="1" stop-color="#4883AF"/></linearGradient><linearGradient id="q" x1="9.223" x2="7.277" y1="17.387" y2="18.454" gradientUnits="userSpaceOnUse"><stop stop-color="#66BAAB"/><stop offset="1" stop-color="#68DDA4"/></linearGradient><linearGradient id="r" x1="6.42" x2="4.569" y1="16.732" y2="16.912" gradientUnits="userSpaceOnUse"><stop stop-color="#4B8DAE"/><stop offset="1" stop-color="#66D0A5"/></linearGradient><linearGradient id="s" x1="19.144" x2="8.061" y1="13.526" y2="13.526" gradientUnits="userSpaceOnUse"><stop stop-color="#4D45C2"/><stop offset="1" stop-color="#4B46C2"/></linearGradient><clipPath id="a"><path fill="#fff" d="M0 0h24v24H0z"/></clipPath></defs></svg>
